Hatter-kde/actions/22/formula.svg

<svg xmlns="http://www.w3.org/2000/svg" viewBox="0 0 22 22">
  <defs id="defs3051">
    <style type="text/css" id="current-color-scheme">
      .ColorScheme-Text {
        color:#363636;
      }
      </style>
  </defs>
 <path 
    style="fill:currentColor;fill-opacity:1;stroke:none" 
    d="M 13.220703 3 L 9.6289062 16.408203 L 7.0839844 12 L 7 12 L 3 12 L 3 13 L 6.5058594 13 L 9.9707031 19 L 14 3.9628906 L 14 4 L 19 4 L 19 3 L 14.257812 3 L 14 3 L 13.220703 3 z "
    class="ColorScheme-Text"
    />  
</svg>

<?xml version="1.0" encoding="UTF-8"?>
<svg viewBox="0 0 22 22" xmlns="http://www.w3.org/2000/svg">
 <defs id="defs3051">
  <style id="current-color-scheme" type="text/css">.ColorScheme-Text {
        color:#363636;
      }</style>
 </defs>
 <path class="ColorScheme-Text" d="m13.221 3-3.5918 13.408-2.5449-4.4082h-0.083984-4v1h3.5059l3.4648 6 4.0293-15.037v0.037109h5v-1h-4.7422-0.25781-0.7793z" fill="currentColor"/>
</svg>
